X:0843
M:3/4
L:1/8
Q:1/4=90 "Slow"
K:A Minor
e2 (ef) (ge)   | d2  (de) (fd)   |   c2   c2   B2  |   B2 c2 z2 |\
e2 (ef) (gf/e/)| d2  (de) (fe/d/)|  (cf) (ed) (cB) |{B}c4    d2 |
e2 (cd) (ec)   |(dc) (Bc) (dB)   |  (cB) (Ac) (BA) |  ^G2 E2 z2 |\

